img/icons/experience/react-native.svg

<svg width="33" height="33" viewBox="0 0 33 33" fill="none" xmlns="http://www.w3.org/2000/svg">
<path d="M8.74087 12.375C5.115 13.31 2.75 14.9119 2.75 16.7406C2.75 19.6378 8.80688 22 16.2938 22C17.3113 22 18.0263 21.9464 18.975 21.8666" stroke="#D6BD96" stroke-width="2.75" stroke-linecap="round" stroke-linejoin="round"/>
<path d="M13.5258 21.8624C12.958 21.0429 12.4176 20.3046 11.9033 19.3874C8.12072 12.6499 7.10735 5.95369 9.6621 4.43706C11.2433 3.47869 13.8517 4.78494 16.5013 7.53631" stroke="#D6BD96" stroke-width="2.75" stroke-linecap="round" stroke-linejoin="round"/>
<path d="M8.83987 21.1571C7.87462 24.8531 8.06987 27.6416 9.60987 28.5752C12.0615 30.0602 17.017 25.883 20.669 19.2197C21.164 18.2985 21.6081 17.3924 22 16.5" stroke="#D6BD96" stroke-width="2.75" stroke-linecap="round" stroke-linejoin="round"/>
<path d="M16.5 25.465C19.151 28.215 21.7484 29.5212 23.3448 28.5628C25.8885 27.0476 24.8861 20.3513 21.0994 13.6125C20.5714 12.6816 20.031 11.957 19.4769 11.1375" stroke="#D6BD96" stroke-width="2.75" stroke-linecap="round" stroke-linejoin="round"/>
<path d="M24.2825 20.625C27.874 19.6804 30.25 18.0813 30.25 16.258C30.25 13.3568 24.189 11 16.7131 11C15.686 11 14.9724 11.0399 14.025 11.1196" stroke="#D6BD96" stroke-width="2.75" stroke-linecap="round" stroke-linejoin="round"/>
<path d="M11 16.4999C11.3919 15.5924 11.8346 14.7014 12.331 13.7802C15.9706 7.11966 20.9289 2.93141 23.3942 4.42879C24.9205 5.36241 25.1295 8.14954 24.1642 11.8442M16.8575 16.5205H16.8438C16.83 16.6993 16.6787 16.8505 16.4862 16.8505C16.3942 16.846 16.3073 16.8064 16.2434 16.74C16.1795 16.6736 16.1434 16.5852 16.1425 16.493C16.1425 16.3005 16.2937 16.1493 16.4725 16.1493H16.4588C16.6375 16.1355 16.8025 16.3005 16.8025 16.4793" stroke="#D6BD96" stroke-width="2.75" stroke-linecap="round" stroke-linejoin="round"/>
</svg>

<svg width="33" height="33" fill="none" xmlns="http://www.w3.org/2000/svg"><path d="M8.74 12.375c-3.625.935-5.99 2.537-5.99 4.366C2.75 19.638 8.807 22 16.294 22c1.017 0 1.732-.054 2.681-.133" stroke="#D6BD96" stroke-width="2.75" stroke-linecap="round" stroke-linejoin="round"/><path d="M13.526 21.862c-.568-.82-1.108-1.557-1.623-2.475-3.782-6.737-4.796-13.433-2.24-14.95 1.58-.958 4.189.348 6.838 3.1" stroke="#D6BD96" stroke-width="2.75" stroke-linecap="round" stroke-linejoin="round"/><path d="M8.84 21.157c-.965 3.696-.77 6.485.77 7.418 2.452 1.485 7.407-2.692 11.059-9.355A38.23 38.23 0 0 0 22 16.5" stroke="#D6BD96" stroke-width="2.75" stroke-linecap="round" stroke-linejoin="round"/><path d="M16.5 25.465c2.651 2.75 5.248 4.056 6.845 3.098 2.544-1.515 1.541-8.212-2.246-14.95-.528-.931-1.068-1.656-1.622-2.476" stroke="#D6BD96" stroke-width="2.75" stroke-linecap="round" stroke-linejoin="round"/><path d="M24.282 20.625c3.592-.945 5.968-2.544 5.968-4.367 0-2.901-6.061-5.258-13.537-5.258-1.027 0-1.74.04-2.688.12" stroke="#D6BD96" stroke-width="2.75" stroke-linecap="round" stroke-linejoin="round"/><path d="M11 16.5a34.8 34.8 0 0 1 1.331-2.72c3.64-6.66 8.598-10.849 11.063-9.351 1.527.933 1.736 3.72.77 7.415m-7.306 4.676h-.014a.36.36 0 0 1-.358.33.362.362 0 0 1-.344-.357c0-.192.152-.344.33-.344h-.013c.178-.014.343.151.343.33" stroke="#D6BD96" stroke-width="2.75" stroke-linecap="round" stroke-linejoin="round"/></svg>
